icon-themes/sifr_svg/cmd/lc_renameslide.svg

<svg viewBox="0 0 24 24" xmlns="http://www.w3.org/2000/svg"><path d="m1 4v16h8v-2h-6v-8h8v3h2v-3h8v3h2v-9zm2 2h18v2h-18zm8 8c-.554 0-1 .446-1 1v7c0 .554.446 1 1 1h11c.554 0 1-.446 1-1v-7c0-.554-.446-1-1-1zm6 1h1v2h2c1.10457 0 2 1.119288 2 2.5s-.89543 2.5-2 2.5h-2-1zm-5 2h3c.552285 0 1 .447715 1 1v4h-.5-3c-.828427 0-1.5-.671573-1.5-1.5s.671573-1.5 1.5-1.5h2.5v-1h-3zm6 1v3h2c.552285 0 1-.671573 1-1.5s-.447715-1.5-1-1.5zm-5.5 2c-.276142 0-.5.223858-.5.5s.223858.5.5.5h2.5v-1z" fill="#555753"/></svg>

<svg xmlns="http://www.w3.org/2000/svg" viewBox="0 0 24 24">
  <path
     style="fill:#555753"
     d="M 1 4 L 1 20 L 9 20 L 9 18 L 3 18 L 3 10 L 11 10 L 11 13 L 13 13 L 13 10 L 21 10 L 21 13 L 23 13 L 23 4 L 1 4 z M 3 6 L 21 6 L 21 8 L 3 8 L 3 6 z M 11 14 C 10.446 14 10 14.446 10 15 L 10 22 C 10 22.554 10.446 23 11 23 L 22 23 C 22.554 23 23 22.554 23 22 L 23 15 C 23 14.446 22.554 14 22 14 L 11 14 z M 17 15 L 18 15 L 18 17 L 20 17 C 21.10457 17 22 18.119288 22 19.5 C 22 20.880712 21.10457 22 20 22 L 18 22 L 17 22 L 17 15 z M 12 17 L 15 17 C 15.552285 17 16 17.447715 16 18 L 16 22 L 15.5 22 L 12.5 22 C 11.671573 22 11 21.328427 11 20.5 C 11 19.671573 11.671573 19 12.5 19 L 15 19 L 15 18 L 12 18 L 12 17 z M 18 18 L 18 21 L 20 21 C 20.552285 21 21 20.328427 21 19.5 C 21 18.671573 20.552285 18 20 18 L 18 18 z M 12.5 20 C 12.223858 20 12 20.223858 12 20.5 C 12 20.776142 12.223858 21 12.5 21 L 15 21 L 15 20 L 12.5 20 z "
     />
</svg>
